X: 5851
T: Calliope House
R: jig
M: 6/8
K: Dmajor
fg|:a3 faa|eaa dfa|g3 faf|efe edB|A(BA) A2 F|
A2 B d2 e|1 faf fed|efe efg:|2 faf feB|d3 (ABc)||
|:dAA fAA|eAA fAA|Bee (e2 d)|efd Bcd|A(BA) A2 F|
A2 B d2 e|1 faf fed|efe ABc:|2 faf feB|d3 d2||

